!!!!SEGMENT: pl-wn--sd-xvi-qu-273--058_gomolka-mikolaj--melodiae-na-psalterz-polski-lviii-najdzie-sie-kiedy-chwila-tak-szczesliwa.krn
!!!cenid: 15xx:263
!!!COM: Gomółka, Mikołaj
!!!COM-rismID: pe30013343
!!!CDT: ~1535->1591/04/30
!!!CNT: Polish
!!!GTL: Melodiae na psalterz polski
!!!OTL: LVIII. Najdzie się kiedy chwila tak szczęśliwa,
!!!OMV: 058
!!!PDT: 1580
!!!AGN: Sacred
!!!SMS-siglum: PL-Wn
!!!SMS-shelfmark: SD XVI.Qu.273
!!!SMS-shelfwork: 001-058 G
!!!NIFC-rismSourceID: 990022100
!!!NIFC-rismChildID: 990022100
!!!NIFC-islandoraID: none
!!!URL-pdf-islandora:
!!!URL-scan: https://polona.pl/item-view/9e614fd4-ba4f-44ae-9d17-4f78b947e64f?page=135 @EN{Scan on Polona} @PL{Skany w portalu Polona}
!!!IIIF: https://polona.pl/api/search-index/search/iiif/9e614fd4-ba4f-44ae-9d17-4f78b947e64f/manifest.json
!!!ONB-nifc: Melodiae na psalterz polski
!!!AIN: 4 empty
!!!key:
**kern	**text	**kern	**text	**kern	**text	**kern	**text
*part4	*part4	*part3	*part3	*part2	*part2	*part1	*part1
*staff4	*staff4	*staff3	*staff3	*staff2	*staff2	*staff1	*staff1
*I"BASSVS.	*	*I"TENOR.	*	*I"ALTVS.	*	*I"CANTVS.	*
*Iempty	*	*Iempty	*	*Iempty	*	*Iempty	*
*I"	*	*I"	*	*I"	*	*I"	*
*I'B.	*	*I'T.	*	*I'A.	*	*I'S.	*
*clefF4	*	*clefC4	*	*clefC3	*	*clefC1	*
*k[]	*	*k[]	*	*k[]	*	*k[]	*
*g:	*	*g:	*	*g:	*	*g:	*
*M2/1	*	*M2/1	*	*M2/1	*	*M2/1	*
*met(C|)	*	*met(C|)	*	*met(C|)	*	*met(C|)	*
*MM300	*	*MM300	*	*MM300	*	*MM300	*
*	*verse[1]	*	*verse[1]	*	*verse[1]	*	*verse[1]
=1-	=1-	=1-	=1-	=1-	=1-	=1-	=1-
*xywh-62v:3973,5345,2468,1160	*	*xywh-62v:3480,3928,2980,1435	*	*xywh-62v:3983,2904,2422,1060	*	*xywh-62v:3635,1076,2751,1672	*
1D	Nay-	1D	Nay-	1c	Nay-	1d	Nay-
2D/	-dʒie	2A/	-dʒie	2d	-(dʒie)	2f	-(dʒie)
2BB	ʃye	2B	ʃye	2d	ʃye	2g/	ʃye
=2-	=2-	=2-	=2-	=2-	=2-	=2-	=2-
2AA	ťie	2c	ťie	1e	ťie	2.a	ťie
2AA	.	2c	.	.	.	.	.
.	.	.	.	.	.	4g	.
2A	.	2c	.	2e	.	4a	.
.	.	.	.	.	.	4b	.
2F	(dy)	2A/	dy	2a	(dy)	2cc	dy
=3-	=3-	=3-	=3-	=3-	=3-	=3-	=3-
2G	chwi-	2.d	chwi-	2g	chwi-	2b	chwi-
2A	-(la)	.	.	2e	-(la)	2a	-(la)
.	.	4c	-(la)	.	.	.	.
!	!'ż'	!	!	!	!	!	!
1E	táťʃʒc(ʒe):	4B	táť	2.e	táť	2a	táť
.	.	4A	.	.	.	.	.
.	.	2B	ʃʒcʒe:	.	.	2g#X/	ʃʒcʒe:
!	!	!	!	!	!'ż'	!	!
.	.	.	.	4d	ʃʒc(ʒe):	.	.
=4-	=4-	=4-	=4-	=4-	=4-	=4-	=4-
2AA	.	2A/	.	2c#X/	.	2a	.
2D/	ʒe	2A/	ʒe	2d	ʒe	2f	ʒe
!!LO:PB:g=original
=-	=-	=-	=-	=-	=-	=-	=-
*xywh-63r:509,5161,4980,1383	*	*xywh-63r:509,3877,4998,1283	*	*xywh-63r:518,2657,5007,1247	*	*xywh-63r:518,1148,5016,1518	*
2C#X	praw-	2A/	praw-	2A	praw-	2e	praw-
2D/	-dę	2A/	-dę	2d	-(dę)	2f#X	-dę
=5-	=5-	=5-	=5-	=5-	=5-	=5-	=5-
1BB	rʒe-	1B	rʒe-	1d	rʒe-	1g#X	rʒe
2AA	-cʒeʃʒ/	2c#X	-cʒe(ʃʒ/)	4e	-cʒeʃʒ/	2a	cʒe(ʃʒ/)
.	.	.	.	2f#X	rá	.	.
2BB	rá-	2d	rá-	.	.	2d	rá-
.	.	.	.	2g	.	.	.
=6-	=6-	=6-	=6-	=6-	=6-	=6-	=6-
2C#X	-do	2A/	-do	.	.	2e	-do
.	.	.	.	4a	do	.	.
2D/	nie	2A/	nie	2d	nie	2f	nie
2GG	.	4G	.	2B	.	4e	.
.	.	4F	.	.	.	4d	.
!	!'ż'	!	!'ż'	!	!'ż'	!	!'ż'
2BB-X	ʒycʒ-	4E	ʒycʒ	2G	ʒycʒ	1d	ʒycʒ
.	.	4D	.	.	.	.	.
=7-	=7-	=7-	=7-	=7-	=7-	=7-	=7-
1AA	-li-	1E	li-	1A	li-	.	.
.	.	.	.	.	.	2c	li-
2D/	-wa:	2D	-wa:	2A	-wa:	2d	-wa:
2D/	Sťa-	2d	Sťa-	2f	Sťa-	2a	Sťa-
=8-	=8-	=8-	=8-	=8-	=8-	=8-	=8-
2G	-ʒeʃʒ	2B	-ʒeʃʒ	2d	-ʒeʃʒ	2g/	-ʒeʃʒ
2C	co	4c	co	4e	co	2g/	co
.	.	4A	.	4c	.	.	.
1GG	ťie-	4B	ťie	4d	ťie	2.g/	ťie
.	.	2c	.	2e	.	.	.
.	.	4B	.	4d	.	4f	.
=9-	=9-	=9-	=9-	=9-	=9-	=9-	=9-
2C	-dy	2c	dy	4e	dy	2e	dy
.	.	.	.	4f	.	.	.
2GG	ʃprá-	2B	ʃprá-	2g	ʃprá-	2d	ʃprá-
2C	-wie-	2A/	-wie-	2c/	-wie-	2e	-wie-
2D/	-dli-	4G	-dli	2B	-dli-	2f	-dli-
.	.	4F	.	.	.	.	.
=10-	=10-	=10-	=10-	=10-	=10-	=10-	=10-
1C	-wie:cʒy-	1G	wie:_cʒy-	2.c/	-wie:	2f	-wie:
.	.	.	.	.	.	2e	cʒy-
.	.	.	.	4B	cʒy-	.	.
!!LO:PB:g=original
=-	=-	=-	=-	=-	=-	=-	=-
*xywh-63v:1522,5311,4186,1234	*	*xywh-63v:1449,3903,4095,1389	*	*xywh-63v:1431,2742,4397,1170	*	*xywh-63v:1449,1161,4790,1572	*
2FF	-li/	2F	-li/	2A	-li/	2f	-li/
2FF	Kto	2A/	Kto	2c/	Kto	2c	Kto
=11-	=11-	=11-	=11-	=11-	=11-	=11-	=11-
2C	ná	2G	ná	2c/	ná	2e	ná
2GG	to	2G	to	2B	to	2d	to
1D	cʒe-	2.F	cʒe	2.A	cʒe	1f	cʒe-
.	.	4G	.	4B	.	.	.
=12-	=12-	=12-	=12-	=12-	=12-	=12-	=12-
2C	-ťa/	2A/	ťa/	2.c/	ťa/	2e	-ťa/
2C	bár-	2E	bár	.	.	2g/	bár-
.	.	.	.	4B	bár-	.	.
2D/	-dʒo	4F	dʒo	4A	-dʒo	2f	-dʒo
.	.	4G	.	4B	.	.	.
2AA	ʃye	4A/	ʃye	4c/	ʃye	4e	ʃye
.	.	4F	.	4A	.	4f	.
=13-	=13-	=13-	=13-	=13-	=13-	=13-	=13-
2GG	.	4G	.	4B	.	4e	.
.	.	4F	.	2A	o	4d	.
2BB-X	o-	4E	o	.	.	1d	o-
.	.	4D	.	4G	.	.	.
1AA	-my-	1E	my-	2.A	my	.	.
.	.	.	.	.	.	2c	-my-
.	.	.	.	4G	.	.	.
=14-	=14-	=14-	=14-	=14-	=14-	=14-	=14-
0Dll	-li:	0Dll	-li:	0A#Xll	li:	0dll	-li:
==-	==-	==-	==-	==-	==-	==-	==-
*-	*-	*-	*-	*-	*-	*-	*-
!!!system-decoration: s1,s2,s3,s4
!!!RDF**kern: l = terminal long
!!!ENC: Anna Matuszewska
!!!END: 2020-02-12
!!!ENC-iiif: Craig Stuart Sapp
!!!END: 2021-12-07
!!!YEC: Copyright 2022 Narodowy Instytut Fryderyka Chopina (https://polishscores.org)
!!!YEM: License CC-BY-4.0 (https://creativecommons.org/licenses/by/4.0)
